X:884
L:1/4
M:3/4
K:G
 D | G A B | A F D | E D ^C | D2 G | A A A/B/ | c2 B/A/ | G F G | A2 (F/4G/4) | A A B/B/ | 
 c2 B/A/ | G A B | (D C) D/D/ | B A/G/ | E C C | D2 E/F/ | G2 ||

